X: 20682
M: 2/4
L: 1/16
K: G
|: G2 |\
c2e2g2e2 | d2"^>"B4B2 | d2 (3(ded) c2A2 | B2"_>"G4G2 |\
c2e2g2e2 | d2"^>"B4B2 | d2 (3(ded) c2A2 | B2G2G2 :|


